X:1
T:Ard Baithen
R:jig
C:Tommy Peoples
D:Tommy Peoples's - Waiting for a Call, Shanachie 2003
Z:Paul Stewart Cranford (P.S.C.), <http://www.cranfordpub.com>
L:1/8
Q:288
M:6/8
K:D
A2 D B2 D|ADD FGA|d2 e fdB|ecA fdB|
ADD F2 G|ABA fec|d=cA~G3|e^cA ~G3:|
|:Ade ~f2 g|afd =cAF|G=cA ~G3|=cGE =cGE|
ABA ~g3|~a3 d=cA|~=c3 E=cE|DFA d2 z:|
|:DED DED|dAd =cAF|~A,2 E GEC|A,CE GEC|
D{A}F/D/D DED|dAd =cAF|~A,2 E GEC|A,CE D2 z:|
